X:08
T: Pickin' Wild Cherries
C: Doyle Lawson
S: MandoZine TablEdit Archives
Z: TablEdited by Larry Tanner for MandoZine
L: 1/8
Q: 460
M: 4/4
K: D
 z2 A2 B2 de | "First Break""D"fe df ed Bc | de dB AF ED | FE DB, A,B, DE | "A"FA zB A2 de |
 "D"fe df ed Bc | de dB AF ED | FE DF ED CE | "A"D2 DE "D"D2 de |
 fe df ed Bc | de dB AF ED | FE DB, A,B, DE | "A"FA zB A2 de |
 "D"fe df ed Bc | de dB AF ED | FE DF ED CE | "A"D2 DE "D"DB, A,B, |
 "G"G,2 gf g2 ef | ge dg ed =ce | dA ^AB =AG FG | "Em"E2 EF ED B,2 |
 =CD EG AB =c2 | "D"cd cd BA F2 | "G"G2 =FE D=C B,A, | G,8 |
 [g2B2D2G,2] g2 g2 ef | ge dg ed =ce | dA ^AB =AG FG | "Em"E2 EF ED B,2 |
 =CD EG AB =c2 | "D"cd cd BA F2 | "G"G2 G2 GF E2 | de fg a2 de |
 "Second Break"fe df ed Bc | dB AF EF DB, | A,B, DE FE D2 | FA AB A2 de |
 fe df ed Bc | dB AF (3EFE DB, | A,B, DE FB AG | FD EC D2 de |
 fa fe df ed | Bc dB AF EF | DB, A,B, DE FB | AF E2 [A2A2] AB |
 Ac Bc de af | df ed Bc dB | A=F ^FB AF EF | GE DB, EB, DB, |
 G,2 zG, B,D EF | G2 AB Bd BA | GB AG FG FG | DE EG ED =CE |
 DB, =CD EG =c2 | cd B2 A2 BA | GB AG EF GB | AG EG FE DB, |
 G,2 G,2 eg gb | ge dg ed Bd | BA GB AB de | de eg ea eg |
 e^d =d=c A=c Bd | =cB =cB AF GB | AG EF GB AB | ce f^g af de |
 fe df ed bc | dB AF EF DB, | A,B, DE FE DE | FA AB A2 de |
 fe df ed Bc | dB AF EF DB, | A,B, DE FB AG | FD EC D2 Ac |
 "Ending"df ed Bc dB | AG FE D2 =F^F | Ac dB AE FB | AF (3EFE D4 | z8 |
